src/assets/images/landing/12-jeu-2.svg

<svg width="583" height="609" fill="none" xmlns="http://www.w3.org/2000/svg"><rect x="3" y="3" width="577" height="603" rx="5" fill="#FAFCF8" stroke="#D9D9D9" stroke-width="5" stroke-linejoin="round"/><rect x="44" y="46" width="495" height="517" rx="5" fill="#FAFCF8" stroke="#D9D9D9" stroke-width="5" stroke-linejoin="round"/><rect x="509" y="273" width="13" height="63" rx="5" fill="#FAFCF8" stroke="#D9D9D9" stroke-width="5" stroke-linejoin="round"/><path d="M112.5 308H475" stroke="#999" stroke-width="10"/><rect x="244.254" y="193" width="203.068" height="121.59" rx="5" transform="rotate(78.753 244.254 193)" fill="#FAFCF8" stroke="#81EC40" stroke-width="3" stroke-linejoin="round"/><ellipse cx="241.04" cy="350.244" rx="4.151" ry="2.507" transform="rotate(116.882 241.04 350.244)" fill="#FAFCF8" stroke="#81EC40" stroke-width="3" stroke-linejoin="round"/><ellipse cx="258.073" cy="374.61" rx="5.411" ry="3.157" transform="rotate(66.594 258.073 374.61)" fill="#FAFCF8" stroke="#81EC40" stroke-width="3" stroke-linejoin="round"/><ellipse cx="219.608" cy="390.921" rx="3.322" ry="2.595" transform="rotate(-36.312 219.608 390.921)" fill="#FAFCF8" stroke="#81EC40" stroke-width="3" stroke-linejoin="round"/><ellipse cx="185.933" cy="274.251" rx="3.322" ry="2.595" transform="rotate(-1.603 185.933 274.251)" fill="#FAFCF8" stroke="#81EC40" stroke-width="3" stroke-linejoin="round"/><ellipse cx="256.065" cy="313.03" rx="2.829" ry="2.21" transform="rotate(-47.785 256.065 313.03)" fill="#FAFCF8" stroke="#81EC40" stroke-width="3" stroke-linejoin="round"/><ellipse cx="247.839" cy="274.413" rx="3.879" ry="3.03" transform="rotate(-47.785 247.839 274.413)" fill="#FAFCF8" stroke="#81EC40" stroke-width="3" stroke-linejoin="round"/><ellipse cx="195.746" cy="214.287" rx="3.879" ry="3.03" transform="rotate(-72.213 195.746 214.287)" fill="#FAFCF8" stroke="#81EC40" stroke-width="3" stroke-linejoin="round"/><ellipse cx="155.176" cy="227.814" rx="3.879" ry="3.03" transform="rotate(-72.213 155.176 227.814)" fill="#FAFCF8" stroke="#81EC40" stroke-width="3" stroke-linejoin="round"/><ellipse cx="139.727" cy="222.411" rx="2.489" ry="2.62" transform="rotate(-72.213 139.727 222.411)" fill="#FAFCF8" stroke="#81EC40" stroke-width="3" stroke-linejoin="round"/><ellipse cx="163.301" cy="308.786" rx="1.731" ry="2.62" transform="rotate(.087 163.301 308.786)" fill="#FAFCF8" stroke="#81EC40" stroke-width="3" stroke-linejoin="round"/><ellipse cx="172.045" cy="358.581" rx="1.731" ry="2.62" transform="rotate(-32.242 172.045 358.581)" fill="#FAFCF8" stroke="#81EC40" stroke-width="3" stroke-linejoin="round"/><ellipse cx="216.042" cy="305.018" rx="1.731" ry="2.62" transform="rotate(47.815 216.042 305.018)" fill="#FAFCF8" stroke="#81EC40" stroke-width="3" stroke-linejoin="round"/><ellipse cx="213.298" cy="250.157" rx="2.677" ry="2.62" transform="rotate(47.815 213.298 250.157)" fill="#FAFCF8" stroke="#81EC40" stroke-width="3" stroke-linejoin="round"/><path d="M276.697 457.387V511h-6.775v-45.154l-13.66 4.981v-6.116l19.373-7.324h1.062zm53.393 22.705v8.13c0 4.37-.39 8.056-1.172 11.059-.781 3.003-1.904 5.42-3.369 7.251-1.465 1.831-3.235 3.162-5.31 3.992-2.051.806-4.37 1.208-6.958 1.208-2.051 0-3.943-.256-5.676-.769a13.472 13.472 0 01-4.688-2.453c-1.367-1.148-2.539-2.637-3.515-4.468-.977-1.831-1.721-4.053-2.234-6.665-.513-2.612-.769-5.664-.769-9.155v-8.13c0-4.37.391-8.032 1.172-10.987.805-2.954 1.941-5.322 3.406-7.104 1.464-1.807 3.222-3.101 5.273-3.882 2.075-.781 4.395-1.172 6.958-1.172 2.075 0 3.98.257 5.713.769 1.758.489 3.32 1.282 4.687 2.381 1.368 1.074 2.527 2.514 3.479 4.321.977 1.782 1.722 3.967 2.234 6.555.513 2.588.769 5.628.769 9.119zm-6.811 9.228v-10.363c0-2.393-.147-4.493-.44-6.299-.268-1.831-.671-3.394-1.208-4.688-.537-1.294-1.221-2.344-2.051-3.149a7.242 7.242 0 00-2.82-1.758c-1.05-.391-2.234-.586-3.552-.586-1.611 0-3.04.305-4.285.916-1.245.586-2.295 1.525-3.149 2.819-.83 1.294-1.465 2.991-1.904 5.091-.44 2.099-.66 4.651-.66 7.654v10.363c0 2.393.135 4.505.403 6.336.293 1.831.72 3.418 1.282 4.761.562 1.318 1.245 2.404 2.051 3.259a7.663 7.663 0 002.783 1.904c1.074.391 2.258.586 3.552.586 1.66 0 3.113-.317 4.358-.952 1.245-.635 2.283-1.624 3.113-2.966.854-1.368 1.489-3.113 1.904-5.237.415-2.149.623-4.712.623-7.691z" fill="#000"/></svg>

<svg width="583" height="609" viewBox="0 0 583 609" fill="none" xmlns="http://www.w3.org/2000/svg">
<rect x="3" y="3" width="577" height="603" rx="5" fill="#FAFCF8" stroke="#D9D9D9" stroke-width="5" stroke-linejoin="round"/>
<rect x="44" y="46" width="495" height="517" rx="5" fill="#FAFCF8" stroke="#D9D9D9" stroke-width="5" stroke-linejoin="round"/>
<rect x="509" y="273" width="13" height="63" rx="5" fill="#FAFCF8" stroke="#D9D9D9" stroke-width="5" stroke-linejoin="round"/>
<path d="M112.5 308H475" stroke="#999999" stroke-width="10"/>
<rect x="244.254" y="193" width="203.068" height="121.59" rx="5" transform="rotate(78.7527 244.254 193)" fill="#FAFCF8" stroke="#81EC40" stroke-width="3" stroke-linejoin="round"/>
<ellipse cx="241.04" cy="350.244" rx="4.15058" ry="2.50701" transform="rotate(116.882 241.04 350.244)" fill="#FAFCF8" stroke="#81EC40" stroke-width="3" stroke-linejoin="round"/>
<ellipse cx="258.073" cy="374.61" rx="5.41066" ry="3.15662" transform="rotate(66.5936 258.073 374.61)" fill="#FAFCF8" stroke="#81EC40" stroke-width="3" stroke-linejoin="round"/>
<ellipse cx="219.608" cy="390.921" rx="3.32214" ry="2.59512" transform="rotate(-36.3123 219.608 390.921)" fill="#FAFCF8" stroke="#81EC40" stroke-width="3" stroke-linejoin="round"/>
<ellipse cx="185.933" cy="274.251" rx="3.32214" ry="2.59512" transform="rotate(-1.60314 185.933 274.251)" fill="#FAFCF8" stroke="#81EC40" stroke-width="3" stroke-linejoin="round"/>
<ellipse cx="256.065" cy="313.03" rx="2.82918" ry="2.21003" transform="rotate(-47.7849 256.065 313.03)" fill="#FAFCF8" stroke="#81EC40" stroke-width="3" stroke-linejoin="round"/>
<ellipse cx="247.839" cy="274.413" rx="3.87912" ry="3.03021" transform="rotate(-47.7849 247.839 274.413)" fill="#FAFCF8" stroke="#81EC40" stroke-width="3" stroke-linejoin="round"/>
<ellipse cx="195.746" cy="214.287" rx="3.87912" ry="3.03021" transform="rotate(-72.2134 195.746 214.287)" fill="#FAFCF8" stroke="#81EC40" stroke-width="3" stroke-linejoin="round"/>
<ellipse cx="155.176" cy="227.814" rx="3.87912" ry="3.03021" transform="rotate(-72.2134 155.176 227.814)" fill="#FAFCF8" stroke="#81EC40" stroke-width="3" stroke-linejoin="round"/>
<ellipse cx="139.727" cy="222.411" rx="2.4886" ry="2.61951" transform="rotate(-72.2134 139.727 222.411)" fill="#FAFCF8" stroke="#81EC40" stroke-width="3" stroke-linejoin="round"/>
<ellipse cx="163.301" cy="308.786" rx="1.7308" ry="2.61951" transform="rotate(0.0872365 163.301 308.786)" fill="#FAFCF8" stroke="#81EC40" stroke-width="3" stroke-linejoin="round"/>
<ellipse cx="172.045" cy="358.581" rx="1.7308" ry="2.61951" transform="rotate(-32.2424 172.045 358.581)" fill="#FAFCF8" stroke="#81EC40" stroke-width="3" stroke-linejoin="round"/>
<ellipse cx="216.042" cy="305.018" rx="1.7308" ry="2.61951" transform="rotate(47.8148 216.042 305.018)" fill="#FAFCF8" stroke="#81EC40" stroke-width="3" stroke-linejoin="round"/>
<ellipse cx="213.298" cy="250.157" rx="2.67698" ry="2.61951" transform="rotate(47.8148 213.298 250.157)" fill="#FAFCF8" stroke="#81EC40" stroke-width="3" stroke-linejoin="round"/>
<path d="M276.697 457.387V511H269.922V465.846L256.262 470.827V464.711L275.635 457.387H276.697ZM330.09 480.092V488.222C330.09 492.592 329.7 496.278 328.918 499.281C328.137 502.284 327.014 504.701 325.549 506.532C324.084 508.363 322.314 509.694 320.239 510.524C318.188 511.33 315.869 511.732 313.281 511.732C311.23 511.732 309.338 511.476 307.605 510.963C305.872 510.451 304.309 509.633 302.917 508.51C301.55 507.362 300.378 505.873 299.402 504.042C298.425 502.211 297.681 499.989 297.168 497.377C296.655 494.765 296.399 491.713 296.399 488.222V480.092C296.399 475.722 296.79 472.06 297.571 469.105C298.376 466.151 299.512 463.783 300.977 462.001C302.441 460.194 304.199 458.9 306.25 458.119C308.325 457.338 310.645 456.947 313.208 456.947C315.283 456.947 317.188 457.204 318.921 457.716C320.679 458.205 322.241 458.998 323.608 460.097C324.976 461.171 326.135 462.611 327.087 464.418C328.064 466.2 328.809 468.385 329.321 470.973C329.834 473.561 330.09 476.601 330.09 480.092ZM323.279 489.32V478.957C323.279 476.564 323.132 474.464 322.839 472.658C322.571 470.827 322.168 469.264 321.631 467.97C321.094 466.676 320.41 465.626 319.58 464.821C318.774 464.015 317.834 463.429 316.76 463.063C315.71 462.672 314.526 462.477 313.208 462.477C311.597 462.477 310.168 462.782 308.923 463.393C307.678 463.979 306.628 464.918 305.774 466.212C304.944 467.506 304.309 469.203 303.87 471.303C303.43 473.402 303.21 475.954 303.21 478.957V489.32C303.21 491.713 303.345 493.825 303.613 495.656C303.906 497.487 304.333 499.074 304.895 500.417C305.457 501.735 306.14 502.821 306.946 503.676C307.751 504.53 308.679 505.165 309.729 505.58C310.803 505.971 311.987 506.166 313.281 506.166C314.941 506.166 316.394 505.849 317.639 505.214C318.884 504.579 319.922 503.59 320.752 502.248C321.606 500.88 322.241 499.135 322.656 497.011C323.071 494.862 323.279 492.299 323.279 489.32Z" fill="black"/>
</svg>
